X:690
T: Rathsallagh
C: BB
M: 4/4
Q: 1/8=330
L: 1/8
R: hornpipe
K: D
D2|"D"FGAB AFDF|"D"Addc "Bm"B2 Bc|"D"defd "Em"efdB|"D"Addc "Bm7"BAFE|
"D"FGAB AFDF|"D"Addc d2 de|"Bm"fagf "Em7"edBG|"A"Adce "D"d2 :|
de|"D"fedf "A"edce|"D"dcAF A2 AB|"C"=cGEG cedc|"A"AFEF "D"D2 de|
"D"fedf "A"edce|"D"defg a4|"G"bg"D"af "Em7"(3efg dB|"A"AFEF "D"D2 :|

%%%%%%%%%%%%%%%%%%%%%%%%%%%%%%%%%%%%%%%%%%%

